icons/shield-24.svg

<svg width="24" height="24" viewBox="0 0 24 24" xmlns="http://www.w3.org/2000/svg">
  <path d="M13 15.5C13 16.0523 12.5523 16.5 12 16.5C11.4477 16.5 11 16.0523 11 15.5C11 14.9477 11.4477 14.5 12 14.5C12.5523 14.5 13 14.9477 13 15.5Z"/>
  <path d="M12.75 7.25C12.75 6.83579 12.4142 6.5 12 6.5C11.5858 6.5 11.25 6.83579 11.25 7.25V11.75C11.25 12.1642 11.5858 12.5 12 12.5C12.4142 12.5 12.75 12.1642 12.75 11.75V7.25Z"/>
  <path fill-rule="evenodd" clip-rule="evenodd" d="M11.4601 0.63663C11.811 0.522816 12.189 0.522816 12.5399 0.63663L20.7899 3.31231C21.5108 3.54611 22 4.21708 22 4.97621V9.99999C22 16.1893 18.2292 20.7049 12.599 22.8293C12.2134 22.9748 11.7866 22.9748 11.401 22.8293C5.7708 20.7049 2.00001 16.1893 2 9.99999V4.97593C2 4.21654 2.48947 3.54603 3.21012 3.31231L11.4601 0.63663ZM12.0771 2.06346C12.027 2.0472 11.973 2.0472 11.9229 2.06346L3.67287 4.73914C3.56895 4.77284 3.5 4.86847 3.5 4.97593L3.5 9.99999C3.5 15.4613 6.78075 19.4827 11.9305 21.4259C11.9749 21.4426 12.0251 21.4426 12.0695 21.4259C17.2193 19.4827 20.5 15.4613 20.5 9.99999V4.97621C20.5 4.8685 20.4308 4.77277 20.3271 4.73914L12.0771 2.06346Z"/>
</svg>

<svg xmlns="http://www.w3.org/2000/svg" width="24" height="24" viewBox="0 0 24 24"><path d="M13 15.5a1 1 0 11-2 0 1 1 0 012 0zm-.25-8.25a.75.75 0 00-1.5 0v4.5a.75.75 0 001.5 0v-4.5z"/><path fill-rule="evenodd" d="M11.46.637a1.75 1.75 0 011.08 0l8.25 2.675A1.75 1.75 0 0122 4.976V10c0 6.19-3.77 10.705-9.401 12.83a1.699 1.699 0 01-1.198 0C5.771 20.704 2 16.19 2 10V4.976c0-.76.49-1.43 1.21-1.664L11.46.637zm.617 1.426a.25.25 0 00-.154 0L3.673 4.74a.249.249 0 00-.173.237V10c0 5.461 3.28 9.483 8.43 11.426a.2.2 0 00.14 0C17.22 19.483 20.5 15.46 20.5 10V4.976a.25.25 0 00-.173-.237l-8.25-2.676z"/></svg>
